X: 55
T: Praeludia organi op. 5 – Allegro
C: Franciszek Walczyński
%%abc-version 2.0
%%abcx-abcm2ps-target-version 5.9.1 (29 Sep 2008)
%%abc-creator hum2abc beta
%%abcx-conversion-date 2021/10/04 07:38:39
%%abc-edited-by Andrzej Borzym
%%abc-edited-by Krzysztof Stępień
%%abcx-initial-encoding-date 2021-07-26
%%humdrum-veritas 418924780
%%humdrum-veritas-data 3231977170
%%linebreak <none>
%%barnumbers 0
L: 1/4
M: 3/4
N: Derived from pl-kozmzk--mzk-m-159--044_walczynski-franciszek--praeludia-organi-op-5-allegro.krn
Q: "44. Allegro."
%%staves {1 2}
V: 1 clef=treble
V: 2 clef=bass
K: Bb
[V:1] d3- & BA_A | 
[V:2] G^F=F & [G,3G,,3]- | 
[V:1] d2c & G3 | 
[V:2] E3 & [G,3G,,3]- | 
[V:1] B2A & G2^F | 
[V:2] D2C & [G,3G,,3]- | 
[V:1] !fermata!G3 & G3 | 
[V:2] B,3 & [G,3G,,3] | 
[V:1] ^FGA & D3 | 
[V:2] C3 & A,3 | 
[V:1] D=E^F & C3 | 
[V:2] ^F,G,A, & D,3 | 
[V:1] G2A & DED- | 
[V:2] B,CA, & G,2^F, | 
[V:1] B2c & DG2- | 
[V:2] G,3 & G,F,E, | 
[V:1] !fermata!d3 & G=E!fermata!^F | 
[V:2] A,3 & !fermata!D,3 | 
[V:1] z3 & z3 | 
[V:2] z3 & D,A,,C, | 
[V:1] z3 & z3 | 
[V:2] z3 & B,,2G,, | 
[V:1] z3 & z3 | 
[V:2] DA,C & ^F,,3 | 
[V:1] z3 & z3 | 
[V:2] B,2G, & G,,A,,B,, | 
[V:1] z3 & GDF | 
[V:2] G,3- & =B,,3 | 
[V:1] z3 & E2D | 
[V:2] G,3 & C,D,E, | 
[V:1] z3 & =B,3 | 
[V:2] _A,G,F, & F,E,D, | 
[V:1] z3 & CDE | 
[V:2] G,3 & E,2C, | 
[V:1] dAc & D3- | 
[V:2] ^F,3 & D,3- | 
[V:1] B2G & D3 | 
[V:2] G,A,B, & D,3 | 
[V:1] AG^F & ED3/C/ | 
[V:2] CB,A, & C,D,D,, | 
[V:1] G3 & B,=B,C | 
[V:2] G,3 & E,D,E, | 
[V:1] gdf & G3- | 
[V:2] G,3- & =B,,3 | 
[V:1] e2c & G3 | 
[V:2] G,2C & C,D,E, | 
[V:1] =B3 & G3- | 
[V:2] D3 & G,D,F, | 
[V:1] c2e & G3 | 
[V:2] C3 & E,D,C, | 
[V:1] dAc & ^FD2- | 
[V:2] A,^F,2 & D,3- | 
[V:1] B2G & D3 | 
[V:2] G,A,B, & D,3 | 
[V:1] AG^F & ED3/C/ | 
[V:2] CB,A, & C,D,2 | 
[V:1] G3- & B,A,B, | 
[V:2] G,3 & E,3 | 
[V:1] G3- & =B,3 | 
[V:2] G,D,=F, & G,,3- | 
[V:1] G3- & C2E | 
[V:2] E,D,C, & G,,3- | 
[V:1] G3- & GDF | 
[V:2] =B,,3 & G,,3- | 
[V:1] G3- & E2C | 
[V:2] C,D,E, & G,,3- | 
[V:1] !fermata!G3 & =B,3 |]  
[V:2] D,3 & !fermata!G,,3 |]  


